X: 5
T: Fanny Power
R: jig
M: 6/8
L: 1/8
K: Fmaj
"Grazioso"F |F2 C FGA | B2 A G2 F | E2 D CEC | E2 F G2 B |
AGF ABc | d2 G G2 F | E2 D CFE | F3 F2 ||
A |cA/B/c cA/B/c | FAF FAF | dB/c/d dB/c/d | GBG GBG |
ABc def | efg cdc | A2 F GAG | F3 F2 |]


Tune 957	Setting 25632

